X: 209
T:Sheila Coyle's
C:Reel
R:reel
M:C|
K:D
FA~A2 FADF|ADFA BAGF|GBBA ~B3B|ABdf edBA|
FA~A2 FADF|ADFA BAGF|GB~B2 AFDF|EFGE FDD2:|
dffe fgfe|dcdB AFDF|A~c3 c2dc|~B3A BAFA|
dffe ~f3e|dcdB AFDF|GB~B2 AFDF|EFGE FDD2:|

